X:141
T:Pigeon on the Gate, The
R:reel
H:See also #140, #420, #532, #653, #654, #655, #656, #935
Z:id:hn-reel-141
M:C|
K:G
Bc|dG~G2 dgfg|~d3e dcAB|cF~F2 cF~F2|cded cABc|
dG~G2 dgfg|~d3e dcAG|FGAB cded|1 fdcA G2:|2 fdcA BG||
|:Bc|dg~g2 fagf|dg~g2 bgaf|d^cde f2{a}fe|defg afge|
dg~g2 fagf|dg~g2 bgag|fdde fdeg|1 fdcA BG:|2 fdcA G2||
P:Variation of the first part
|:Bc|dG~G2 dGeG|dG~G2 dcAB|cF~F2 cFdF|cF~F2 cABc|
dG~G2 dGeG|dG~G2 dcAG|FGAB cded|1 fdcA G2:|2 fdcA BG||
|:Bc|dg~g2 fagf|dg~g2 bgaf|d^cde f2{a}fe|defg afge|
dg~g2 fagf|dg~g2 bgag|fdde fdeg|1 fdcA BG:|2 fdcA G2||

